places/24/gnome-fs-directory-accept.svg

<?xml version="1.0" encoding="UTF-8" standalone="no"?>
<!-- Created with Inkscape (http://www.inkscape.org/) -->
<svg
   xmlns:svg="http://www.w3.org/2000/svg"
   xmlns="http://www.w3.org/2000/svg"
   xmlns:xlink="http://www.w3.org/1999/xlink"
   version="1.0"
   width="24"
   height="24"
   id="svg2">
  <defs
     id="defs4">
    <radialGradient
       cx="605.71429"
       cy="486.64789"
       r="117.14286"
       fx="605.71429"
       fy="486.64789"
       id="radialGradient4361"
       xlink:href="#linearGradient5060"
       gradientUnits="userSpaceOnUse"
       gradientTransform="matrix(-2.774389,0,0,1.969706,112.7623,-872.8854)" />
    <linearGradient
       id="linearGradient5060">
      <stop
         id="stop5062"
         style="stop-color:#000000;stop-opacity:1"
         offset="0" />
      <stop
         id="stop5064"
         style="stop-color:#000000;stop-opacity:0"
         offset="1" />
    </linearGradient>
    <radialGradient
       cx="605.71429"
       cy="486.64789"
       r="117.14286"
       fx="605.71429"
       fy="486.64789"
       id="radialGradient4359"
       xlink:href="#linearGradient5060"
       gradientUnits="userSpaceOnUse"
       gradientTransform="matrix(2.774389,0,0,1.969706,-1891.633,-872.8854)" />
    <linearGradient
       id="linearGradient5048">
      <stop
         id="stop5050"
         style="stop-color:#000000;stop-opacity:0"
         offset="0" />
      <stop
         id="stop5056"
         style="stop-color:#000000;stop-opacity:1"
         offset="0.5" />
      <stop
         id="stop5052"
         style="stop-color:#000000;stop-opacity:0"
         offset="1" />
    </linearGradient>
    <linearGradient
       x1="302.85715"
       y1="366.64789"
       x2="302.85715"
       y2="609.50507"
       id="linearGradient4357"
       xlink:href="#linearGradient5048"
       gradientUnits="userSpaceOnUse"
       gradientTransform="matrix(2.774389,0,0,1.969706,-1892.179,-872.8854)" />
    <linearGradient
       id="linearGradient5157">
      <stop
         id="stop5159"
         style="stop-color:#c1c1c1;stop-opacity:1"
         offset="0" />
      <stop
         id="stop5161"
         style="stop-color:#909090;stop-opacity:1"
         offset="1" />
    </linearGradient>
    <linearGradient
       x1="9.8763561"
       y1="2.6014566"
       x2="9.8763561"
       y2="23.061668"
       id="linearGradient5163"
       xlink:href="#linearGradient5157"
       gradientUnits="userSpaceOnUse" />
    <linearGradient
       id="linearGradient11111">
      <stop
         id="stop11113"
         style="stop-color:#ffffff;stop-opacity:1"
         offset="0" />
      <stop
         id="stop11115"
         style="stop-color:#cdcdcd;stop-opacity:1"
         offset="0.91013825" />
      <stop
         id="stop11117"
         style="stop-color:#a1a1a1;stop-opacity:1"
         offset="1" />
    </linearGradient>
    <linearGradient
       x1="-28.531403"
       y1="17.955765"
       x2="-28.531403"
       y2="37.502914"
       id="linearGradient4380"
       xlink:href="#linearGradient11111"
       gradientUnits="userSpaceOnUse"
       gradientTransform="translate(34.378004,-14.501322)" />
    <linearGradient
       id="linearGradient3390">
      <stop
         id="stop3392"
         style="stop-color:#425e7b;stop-opacity:1"
         offset="0" />
      <stop
         id="stop3394"
         style="stop-color:#7a91a7;stop-opacity:1"
         offset="1" />
    </linearGradient>
    <linearGradient
       x1="9.7045717"
       y1="20.882006"
       x2="9.7045717"
       y2="4.3030405"
       id="linearGradient2564"
       xlink:href="#linearGradient3390"
       gradientUnits="userSpaceOnUse"
       gradientTransform="matrix(0.9945751,0,0,0.7440584,-0.3393041,6.9076824)" />
    <linearGradient
       id="linearGradient7012-661-145-733-759-865-745">
      <stop
         id="stop2699"
         style="stop-color:#9cbbd9;stop-opacity:1"
         offset="0" />
      <stop
         id="stop2701"
         style="stop-color:#5c82ab;stop-opacity:1"
         offset="1" />
    </linearGradient>
    <radialGradient
       cx="7.8185525"
       cy="8.5608768"
       r="11.268134"
       fx="7.8185525"
       fy="8.5608768"
       id="radialGradient2562"
       xlink:href="#linearGradient7012-661-145-733-759-865-745"
       gradientUnits="userSpaceOnUse"
       gradientTransform="matrix(1.6899516,0,0,0.7807412,-5.4490081,6.3420912)" />
    <linearGradient
       id="linearGradient3752">
      <stop
         id="stop3754"
         style="stop-color:#ffffff;stop-opacity:1"
         offset="0" />
      <stop
         id="stop3760"
         style="stop-color:#ffffff;stop-opacity:1"
         offset="0.84754151" />
      <stop
         id="stop3756"
         style="stop-color:#ffffff;stop-opacity:0"
         offset="1" />
    </linearGradient>
    <radialGradient
       cx="4.02005"
       cy="5.5926585"
       r="10.273108"
       fx="4.02005"
       fy="5.5926585"
       id="radialGradient2559"
       xlink:href="#linearGradient3752"
       gradientUnits="userSpaceOnUse"
       gradientTransform="matrix(-1.6802223e-2,1.0430854,-1.79662,-1.6197276e-2,14.15223,7.2359942)" />
    <linearGradient
       id="linearGradient2530">
      <stop
         id="stop2532"
         style="stop-color:#ffffff;stop-opacity:0.27450982"
         offset="0" />
      <stop
         id="stop2534"
         style="stop-color:#ffffff;stop-opacity:0.07843138"
         offset="1" />
    </linearGradient>
    <linearGradient
       x1="18.03083"
       y1="16.407909"
       x2="20.054544"
       y2="24.627615"
       id="linearGradient2556"
       xlink:href="#linearGradient2530"
       gradientUnits="userSpaceOnUse"
       gradientTransform="matrix(0.4450331,0,0,0.3010162,2.8191679,8.5027342)" />
  </defs>
  <g
     id="layer1">
    <g
       transform="matrix(0.5459263,0,0,0.5168524,-1.0020361,-0.5781821)"
       id="g3490"
       style="stroke-width:1.88256383;stroke-miterlimit:4;stroke-dasharray:none">
      <g
         transform="matrix(2.165152e-2,0,0,1.485743e-2,43.0076,42.68539)"
         id="g5022"
         style="stroke-width:104.96237946;stroke-miterlimit:4;stroke-dasharray:none;display:inline">
        <rect
           width="1339.6335"
           height="478.35718"
           x="-1559.2523"
           y="-150.69685"
           id="rect4173"
           style="opacity:0.40206185;fill:url(#linearGradient4357);fill-opacity:1;fill-rule:nonzero;stroke:none;stroke-width:104.96237946;stroke-linecap:round;stroke-linejoin:miter;marker:none;marker-start:none;marker-mid:none;marker-end:none;stroke-miterlimit:4;stroke-dasharray:none;stroke-dashoffset:0;stroke-opacity:1;visibility:visible;display:inline;overflow:visible" />
        <path
           d="M -219.61876,-150.68038 C -219.61876,-150.68038 -219.61876,327.65041 -219.61876,327.65041 C -76.744594,328.55086 125.78146,220.48075 125.78138,88.454235 C 125.78138,-43.572302 -33.655436,-150.68036 -219.61876,-150.68038 z"
           id="path5058"
           style="opacity:0.40206185;fill:url(#radialGradient4359);fill-opacity:1;fill-rule:nonzero;stroke:none;stroke-width:104.96237946;stroke-linecap:round;stroke-linejoin:miter;marker:none;marker-start:none;marker-mid:none;marker-end:none;stroke-miterlimit:4;stroke-dasharray:none;stroke-dashoffset:0;stroke-opacity:1;visibility:visible;display:inline;overflow:visible" />
        <path
           d="M -1559.2523,-150.68038 C -1559.2523,-150.68038 -1559.2523,327.65041 -1559.2523,327.65041 C -1702.1265,328.55086 -1904.6525,220.48075 -1904.6525,88.454235 C -1904.6525,-43.572302 -1745.2157,-150.68036 -1559.2523,-150.68038 z"
           id="path5018"
           style="opacity:0.40206185;fill:url(#radialGradient4361);fill-opacity:1;fill-rule:nonzero;stroke:none;stroke-width:104.96237946;stroke-linecap:round;stroke-linejoin:miter;marker:none;marker-start:none;marker-mid:none;marker-end:none;stroke-miterlimit:4;stroke-dasharray:none;stroke-dashoffset:0;stroke-opacity:1;visibility:visible;display:inline;overflow:visible" />
      </g>
    </g>
    <path
       d="M 2.6510299,2.5338039 C 2.5654909,2.5338039 2.4921609,2.6265509 2.4921609,2.7223469 L 2.4921609,4.5257669 L 1.2953869,4.5257669 L 0.6916849,4.5257669 C 0.5849399,4.5257669 0.5010429,4.6206279 0.5010429,4.7143099 L 0.5010429,5.0913949 L 0.5010429,9.261687 C 0.4902679,13.216241 0.4692689,17.341005 0.4692689,20.98276 C 0.4983529,21.877795 1.0065099,22.487902 1.3589339,22.491102 C 2.3716699,22.500297 1.8982059,22.487073 2.4074689,22.491102 C 8.8778018,22.475003 15.986386,22.412929 22.456717,22.396831 C 22.510931,22.403749 20.980002,22.289106 20.995123,20.951336 C 20.995124,16.278389 20.493076,9.764344 20.493076,5.0913949 C 20.493076,4.9045169 20.477636,4.8005089 20.461302,4.7143099 C 20.448688,4.6477469 20.432606,4.6154399 20.397755,4.5886149 C 20.369893,4.5641639 20.343206,4.5315719 20.302434,4.5257669 L 10.467263,4.5257669 L 10.467263,2.7223469 C 10.467263,2.6265509 10.393932,2.5338039 10.308394,2.5338039 L 2.6510299,2.5338039 z"
       id="path3496"
       style="fill:url(#linearGradient4380);fill-opacity:1;stroke:url(#linearGradient5163);stroke-width:1.01114547;stroke-linecap:round;stroke-linejoin:round;stroke-miterlimit:4;stroke-dasharray:none;stroke-opacity:1;display:inline" />
    <path
       d="M 3.4993169,10.520603 C 14.069219,10.520603 16.529761,10.520947 23.492822,10.5 C 23.492822,11.674875 23.750978,22.5 23.00871,22.5 C 22.294662,22.5 8.9630589,22.429415 1.9999999,22.450361 C 3.4716839,22.450361 3.4993169,21.984473 3.4993169,10.520603 z"
       id="path2549"
       style="fill:url(#radialGradient2562);fill-opacity:1;stroke:url(#linearGradient2564);stroke-width:0.99999988;stroke-linecap:round;stroke-linejoin:round;stroke-miterlimit:4;stroke-dasharray:none;stroke-opacity:1;display:inline" />
    <path
       d="M 22.938762,11.31489 C 22.938762,11.31489 6.1069609,11.384922 4.5419659,11.245788 C 4.4590269,21.59182 4.0410179,22.047878 4.0410179,22.047878"
       id="path2551"
       style="opacity:0.4;fill:none;fill-rule:evenodd;stroke:url(#radialGradient2559);stroke-width:0.98119497;stroke-linecap:butt;stroke-linejoin:miter;stroke-miterlimit:4;stroke-dasharray:none;stroke-opacity:1;display:inline" />
    <path
       d="M 4.2516179,10.11129 C 3.5667349,10.11129 2.9999629,10.494649 2.9999629,10.957897 L 2.9999629,15.774157 C 3.0025859,15.860318 3.0660139,15.958553 3.1668499,16.018733 C 3.2676849,16.078912 3.3965739,16.104303 3.5423469,16.093987 C 3.5469819,16.094067 3.5516189,16.094067 3.5562539,16.093987 L 23.582744,13.949246 C 23.81495,13.924476 23.996716,13.788404 23.999962,13.629417 L 23.999962,10.957897 C 23.999962,10.494649 23.433189,10.11129 22.748307,10.11129 L 4.2516179,10.11129 z"
       id="path2553"
       style="fill:url(#linearGradient2556);fill-opacity:1;fill-rule:evenodd;stroke:none;stroke-width:1.00213289;stroke-linecap:round;stroke-linejoin:round;stroke-miterlimit:4;stroke-dasharray:none;stroke-dashoffset:0;stroke-opacity:1" />
  </g>
</svg>

<?xml version="1.0" encoding="UTF-8" standalone="no"?>
<!-- Created with Inkscape (http://www.inkscape.org/) -->

<svg
   xmlns:svg="http://www.w3.org/2000/svg"
   xmlns="http://www.w3.org/2000/svg"
   xmlns:xlink="http://www.w3.org/1999/xlink"
   version="1.0"
   width="24"
   height="24"
   id="svg2">
  <defs
     id="defs4">
    <radialGradient
       cx="605.71429"
       cy="486.64789"
       r="117.14286"
       fx="605.71429"
       fy="486.64789"
       id="radialGradient4361"
       xlink:href="#linearGradient5060"
       gradientUnits="userSpaceOnUse"
       gradientTransform="matrix(-2.774389,0,0,1.969706,112.7623,-872.8854)" />
    <linearGradient
       id="linearGradient5060">
      <stop
         id="stop5062"
         style="stop-color:black;stop-opacity:1"
         offset="0" />
      <stop
         id="stop5064"
         style="stop-color:black;stop-opacity:0"
         offset="1" />
    </linearGradient>
    <radialGradient
       cx="605.71429"
       cy="486.64789"
       r="117.14286"
       fx="605.71429"
       fy="486.64789"
       id="radialGradient4359"
       xlink:href="#linearGradient5060"
       gradientUnits="userSpaceOnUse"
       gradientTransform="matrix(2.774389,0,0,1.969706,-1891.633,-872.8854)" />
    <linearGradient
       id="linearGradient5048">
      <stop
         id="stop5050"
         style="stop-color:black;stop-opacity:0"
         offset="0" />
      <stop
         id="stop5056"
         style="stop-color:black;stop-opacity:1"
         offset="0.5" />
      <stop
         id="stop5052"
         style="stop-color:black;stop-opacity:0"
         offset="1" />
    </linearGradient>
    <linearGradient
       x1="302.85715"
       y1="366.64789"
       x2="302.85715"
       y2="609.50507"
       id="linearGradient4357"
       xlink:href="#linearGradient5048"
       gradientUnits="userSpaceOnUse"
       gradientTransform="matrix(2.774389,0,0,1.969706,-1892.179,-872.8854)" />
    <linearGradient
       id="linearGradient5157">
      <stop
         id="stop5159"
         style="stop-color:#c1c1c1;stop-opacity:1"
         offset="0" />
      <stop
         id="stop5161"
         style="stop-color:#909090;stop-opacity:1"
         offset="1" />
    </linearGradient>
    <linearGradient
       x1="9.8763561"
       y1="2.6014566"
       x2="9.8763561"
       y2="23.061668"
       id="linearGradient5163"
       xlink:href="#linearGradient5157"
       gradientUnits="userSpaceOnUse" />
    <linearGradient
       id="linearGradient11111">
      <stop
         id="stop11113"
         style="stop-color:white;stop-opacity:1"
         offset="0" />
      <stop
         id="stop11115"
         style="stop-color:#cdcdcd;stop-opacity:1"
         offset="0.91013825" />
      <stop
         id="stop11117"
         style="stop-color:#a1a1a1;stop-opacity:1"
         offset="1" />
    </linearGradient>
    <linearGradient
       x1="-28.531403"
       y1="17.955765"
       x2="-28.531403"
       y2="37.502914"
       id="linearGradient4380"
       xlink:href="#linearGradient11111"
       gradientUnits="userSpaceOnUse"
       gradientTransform="translate(34.378004,-14.501322)" />
    <linearGradient
       id="linearGradient3390">
      <stop
         id="stop3392"
         style="stop-color:#425e7b;stop-opacity:1"
         offset="0" />
      <stop
         id="stop3394"
         style="stop-color:#7a91a7;stop-opacity:1"
         offset="1" />
    </linearGradient>
    <linearGradient
       x1="9.7045717"
       y1="20.882006"
       x2="9.7045717"
       y2="4.3030405"
       id="linearGradient2564"
       xlink:href="#linearGradient3390"
       gradientUnits="userSpaceOnUse"
       gradientTransform="matrix(0.9945751,0,0,0.7440584,-0.3393041,6.9076824)" />
    <linearGradient
       id="linearGradient7012-661-145-733-759-865-745">
      <stop
         id="stop2699"
         style="stop-color:#9cbbd9;stop-opacity:1"
         offset="0" />
      <stop
         id="stop2701"
         style="stop-color:#5c82ab;stop-opacity:1"
         offset="1" />
    </linearGradient>
    <radialGradient
       cx="7.8185525"
       cy="8.5608768"
       r="11.268134"
       fx="7.8185525"
       fy="8.5608768"
       id="radialGradient2562"
       xlink:href="#linearGradient7012-661-145-733-759-865-745"
       gradientUnits="userSpaceOnUse"
       gradientTransform="matrix(1.6899516,0,0,0.7807412,-5.4490081,6.3420912)" />
    <linearGradient
       id="linearGradient3752">
      <stop
         id="stop3754"
         style="stop-color:white;stop-opacity:1"
         offset="0" />
      <stop
         id="stop3760"
         style="stop-color:white;stop-opacity:1"
         offset="0.84754151" />
      <stop
         id="stop3756"
         style="stop-color:white;stop-opacity:0"
         offset="1" />
    </linearGradient>
    <radialGradient
       cx="4.02005"
       cy="5.5926585"
       r="10.273108"
       fx="4.02005"
       fy="5.5926585"
       id="radialGradient2559"
       xlink:href="#linearGradient3752"
       gradientUnits="userSpaceOnUse"
       gradientTransform="matrix(-0.01680222,1.0430854,-1.79662,-0.01619728,14.15223,7.2359942)" />
    <linearGradient
       id="linearGradient2530">
      <stop
         id="stop2532"
         style="stop-color:white;stop-opacity:0.27450982"
         offset="0" />
      <stop
         id="stop2534"
         style="stop-color:white;stop-opacity:0.07843138"
         offset="1" />
    </linearGradient>
    <linearGradient
       x1="18.03083"
       y1="16.407909"
       x2="20.054544"
       y2="24.627615"
       id="linearGradient2556"
       xlink:href="#linearGradient2530"
       gradientUnits="userSpaceOnUse"
       gradientTransform="matrix(0.4450331,0,0,0.3010162,2.8191679,8.5027342)" />
  </defs>
  <g
     id="layer1">
    <g
       transform="matrix(0.5459263,0,0,0.5168524,-1.0020361,-0.5781821)"
       id="g3490"
       style="stroke-width:1.88256383;stroke-miterlimit:4;stroke-dasharray:none">
      <g
         transform="matrix(0.02165152,0,0,0.01485743,43.0076,42.68539)"
         id="g5022"
         style="stroke-width:104.96237946;stroke-miterlimit:4;stroke-dasharray:none;display:inline">
        <rect
           width="1339.6335"
           height="478.35718"
           x="-1559.2523"
           y="-150.69685"
           id="rect4173"
           style="opacity:0.40206185;fill:url(#linearGradient4357);fill-opacity:1;fill-rule:nonzero;stroke:none;stroke-width:104.96237946;marker:none;visibility:visible;display:inline;overflow:visible" />
        <path
           d="m -219.61876,-150.68038 c 0,0 0,478.33079 0,478.33079 142.874166,0.90045 345.40022,-107.16966 345.40014,-239.196175 0,-132.026537 -159.436816,-239.134595 -345.40014,-239.134615 z"
           id="path5058"
           style="opacity:0.40206185;fill:url(#radialGradient4359);fill-opacity:1;fill-rule:nonzero;stroke:none;stroke-width:104.96237946;marker:none;visibility:visible;display:inline;overflow:visible" />
        <path
           d="m -1559.2523,-150.68038 c 0,0 0,478.33079 0,478.33079 -142.8742,0.90045 -345.4002,-107.16966 -345.4002,-239.196175 0,-132.026537 159.4368,-239.134595 345.4002,-239.134615 z"
           id="path5018"
           style="opacity:0.40206185;fill:url(#radialGradient4361);fill-opacity:1;fill-rule:nonzero;stroke:none;stroke-width:104.96237946;marker:none;visibility:visible;display:inline;overflow:visible" />
      </g>
    </g>
    <path
       d="m 2.6510299,2.5338039 c -0.085539,0 -0.158869,0.092747 -0.158869,0.188543 l 0,1.80342 -1.196774,0 -0.603702,0 c -0.106745,0 -0.190642,0.094861 -0.190642,0.188543 l 0,0.377085 0,4.1702921 c -0.010775,3.954554 -0.031774,8.079318 -0.031774,11.721073 0.029084,0.895035 0.537241,1.505142 0.889665,1.508342 1.012736,0.0092 0.539272,-0.004 1.048535,0 6.4703329,-0.0161 13.5789171,-0.07817 20.0492481,-0.09427 0.05421,0.0069 -1.476715,-0.107725 -1.461594,-1.445495 1e-6,-4.672947 -0.502047,-11.186992 -0.502047,-15.8599411 0,-0.186878 -0.01544,-0.290886 -0.03177,-0.377085 -0.01261,-0.066563 -0.0287,-0.09887 -0.06355,-0.125695 -0.02786,-0.024451 -0.05455,-0.057043 -0.09532,-0.062848 l -9.835171,0 0,-1.80342 c 0,-0.095796 -0.07333,-0.188543 -0.158869,-0.188543 l -7.6573641,0 z"
       id="path3496"
       style="fill:url(#linearGradient4380);fill-opacity:1;stroke:url(#linearGradient5163);stroke-width:1.01114547;stroke-linecap:round;stroke-linejoin:round;stroke-miterlimit:4;stroke-opacity:1;stroke-dasharray:none;display:inline" />
    <path
       d="m 3.4993169,10.520603 c 10.5699021,0 13.0304441,3.44e-4 19.9935051,-0.0206 0,1.174875 0.258156,12 -0.484112,12 -0.714048,0 -14.0456511,-0.07059 -21.0087101,-0.04964 1.471684,0 1.499317,-0.465888 1.499317,-11.929758 z"
       id="path2549"
       style="fill:url(#radialGradient2562);fill-opacity:1;stroke:url(#linearGradient2564);stroke-width:0.99999988;stroke-linecap:round;stroke-linejoin:round;stroke-miterlimit:4;stroke-opacity:1;stroke-dasharray:none;display:inline" />
    <path
       d="m 22.938762,11.31489 c 0,0 -16.8318011,0.07003 -18.3967961,-0.0691 -0.082939,10.346032 -0.500948,10.80209 -0.500948,10.80209"
       id="path2551"
       style="opacity:0.4;fill:none;stroke:url(#radialGradient2559);stroke-width:0.98119497;stroke-linecap:butt;stroke-linejoin:miter;stroke-miterlimit:4;stroke-opacity:1;stroke-dasharray:none;display:inline" />
    <path
       d="m 4.2516179,10.11129 c -0.684883,0 -1.251655,0.383359 -1.251655,0.846607 l 0,4.81626 c 0.00262,0.08616 0.066051,0.184396 0.166887,0.244576 0.100835,0.06018 0.229724,0.08557 0.375497,0.07525 0.00463,8e-5 0.00927,8e-5 0.013907,0 L 23.582744,13.949246 c 0.232206,-0.02477 0.413972,-0.160842 0.417218,-0.319829 l 0,-2.67152 c 0,-0.463248 -0.566773,-0.846607 -1.251655,-0.846607 l -18.4966891,0 z"
       id="path2553"
       style="fill:url(#linearGradient2556);fill-opacity:1;fill-rule:evenodd;stroke:none" />
  </g>
</svg>
